!!!OTL@@FUR: Il cjant di Mer&ecirc;t
!!!OTL@IT: A Mereto non ci sono ragazze
!!!OTL@EN: The song of Mereto
**kern
*clefG2
*k[]
*C:
*M3/4
*MM120
*>[A,B,A,C]
=1
*>A
8g
8e
8g
8e
8g
=2
8e
4f
2f
=3
8a
8f
8a
8f
8a
8f
2.g
=4
8cc
8b
8a
8g
8cc
8g
=5
8d
8e
2f
=6||
*>B
8d
8e
8f
8g
8b
8a
=7
2.g
=8:|!
*>C
8d
8e
8f
8a
8g
8f
=9
2.e
==
*-
!!!ARE: Friuli
!!!ENC: Kelly Leistikow
!!!END: 2002/03/07
!!!ref: @{OTL@@FUR}/@{OTL@EN}
